X: 178
T: Unbekannt
%%abc-version 2.0
%%abcx-abcm2ps-target-version 5.9.1 (29 Sep 2008)
%%abc-creator hum2abc beta
%%abcx-conversion-date 2013/10/02 07:44:28
%%abc-edited-by Helmut Schaffrath
%%humdrum-veritas 943624655
%%humdrum-veritas-data 2289323584
%%continueall 1
%%barnumbers 0
L: 1/16
M: 3/4
K: A
A B c e c B A F [I:setbarnb 1]| 
A B c B c2B4c2 | 
[M:2/4]G2 F2 G2 B2 | 
[M:3/4]G2 F2 E FE4F A | 
[M:2/4]A B c2 G2 F2 | 
[M:3/4]A B c BA8 | 
[M:2/4]c2 e2 c B A2 | 
[M:3/4]A B c2 B cB4c2 | 
[M:2/4]G2 F2 G2 B2 | 
[M:3/4]G2 F2 E FE4F2 | 
[M:2/4]A B c2 G2 F2 | 
A B c BA8 |]  



